X:178
T:Boy in the Boat, The
R:reel
D:Paddy Moloney & Sean Potts: Tin Whistles
Z:id:hn-reel-178
M:C|
K:D
A2AF DFAF|GFEF G2FG|AD (3FED AD (3FED|AFGE DEFG|
A2AF DFAF|GFEF G2FG|AFAd BGBd|1 cAGE FDDF:|2 cAGE FDDd||
|:cded cA~A2|cAeA cA~A2|cded cAAB|cAGE EDDd|
cded cAAB|(3cBA dB cAde|~f3d efed|1 cAGE FDDd:|2 cAGE FDDF||

